src/main/webapp/scripts/pdfjs/v54530/web/images/toolbarButton-editorFreeText.svg

<svg fill="none" height="16" viewBox="0 0 16 16" width="16" xmlns="http://www.w3.org/2000/svg"><g clip-rule="evenodd" fill="#000" fill-rule="evenodd"><path d="m3 2.5c-.27579 0-.5.22421-.5.5v1.75h-1.5v-1.75c0-1.10421.89579-2 2-2h10c1.1042 0 2 .89579 2 2v1.75h-1.5v-1.75c0-.27579-.2242-.5-.5-.5z"/><path d="m11 15h-6v-1.5h6z"/><path d="m8.75 2.25v12h-1.5v-12z"/></g></svg>

<svg width="16" height="16" viewBox="0 0 16 16" fill="none" xmlns="http://www.w3.org/2000/svg">
<path fill-rule="evenodd" clip-rule="evenodd" d="M3 2.5C2.72421 2.5 2.5 2.72421 2.5 3V4.75H1V3C1 1.89579 1.89579 1 3 1H13C14.1042 1 15 1.89579 15 3V4.75H13.5V3C13.5 2.72421 13.2758 2.5 13 2.5H3Z" fill="black"/>
<path fill-rule="evenodd" clip-rule="evenodd" d="M11 15H5V13.5H11V15Z" fill="black"/>
<path fill-rule="evenodd" clip-rule="evenodd" d="M8.75 2.25V14.25H7.25V2.25H8.75Z" fill="black"/>
</svg>
